X: 378
T: Jian shanyao diao
L: 1/16
M: 2/4
K: Bb
d2 f2 d2 d c [I:setbarnb 1]| 
B2 f2 d2 d c | 
B2 F2 c2 c d | 
c2 c FB4 | 
B2 G F c2 c d | 
c2 c FB4 | 
G2 G B c2 c d | 
f2 G2F4 | 
A2z6 | 
G G G B c2 F2 | 
B2 B GF4 |]

@@@ Tune index: 9252
